X: 375
T: Shilai ge
%%abc-version 2.0
%%abcx-abcm2ps-target-version 5.9.1 (29 Sep 2008)
%%abc-creator hum2abc beta
%%abcx-conversion-date 2013/10/02 07:52:30
%%abc-edited-by Helmut Schaffrath
%%humdrum-veritas 3738862990
%%humdrum-veritas-data 1019119697
%%continueall 1
%%barnumbers 0
L: 1/16
M: 3/4
K: F
c2 c2 A2 c2 [I:setbarnb 1]| 
f2 d c A2 f2 | 
d2 c A2< G2 FG4 | 
[M:2/4]c2> A2 d f d c | 
G A c2 F3 D | 
G G G A G F D2 | 
C2> D2C4 | 
C2> D2 G2 F2 | 
G G G A G F D2 | 
C2> D2C4 |]  



